assets/icons/ko-fi.svg

<?xml version="1.0" encoding="UTF-8" standalone="no"?>
<!-- Created with Inkscape (http://www.inkscape.org/) -->

<svg
   width="211.66666mm"
   height="211.66667mm"
   viewBox="0 0 211.66666 211.66667"
   version="1.1"
   id="svg2523"
   xmlns="http://www.w3.org/2000/svg"
   xmlns:svg="http://www.w3.org/2000/svg">
  <defs
     id="defs2520">
    <clipPath
       clipPathUnits="userSpaceOnUse"
       id="clipPath25">
      <path fill="currentColor"
         d="M 0,600 H 1654.775 V 0 H 0 Z"
         id="path23" />
    </clipPath>
  </defs>
  <g
     id="layer1"
     transform="translate(-3.0786141,-29.590072)">
    <g
       id="g19"
       transform="matrix(0.35277776,0,0,-0.35277778,3.078473,241.25674)">
      <g
         id="g21"
         clip-path="url(#clipPath25)">
        <g
           id="g27"
           transform="translate(600.0004,300)">
          <path fill="currentColor"
             id="path29"
             d="M -299.99998 300 C -465.68582 300 -600 165.68584 -600 1.8897638e-06 C -600 -165.68583 -465.68582 -300 -299.99998 -300 C -134.31515 -300 3.0204746e-05 -165.68583 3.0204746e-05 1.8897638e-06 C 3.0204746e-05 165.68584 -134.31515 300 -299.99998 300 z M -488.92675 133.01221 L -159.34275 133.01221 C -136.11977 133.01221 -113.31098 126.17971 -94.269994 112.88672 C -75.858012 100.03073 -57.89172 79.241156 -51.572726 45.867189 C -36.898741 -31.646733 -95.141003 -89.895563 -177.68992 -85.309568 C -177.25192 -106.57755 -181.50038 -144.73138 -222.56834 -155.00537 C -225.85034 -155.82637 -229.22878 -156.1914 -232.61277 -156.2124 C -304.7427 -156.6604 -455.14745 -157.10156 -455.14745 -157.10156 C -455.14745 -157.10156 -501.21373 -157.11711 -504.32373 -111.13916 C -505.34672 -33.259235 -504.80712 112.5542 -504.80712 112.5542 C -504.80712 112.5542 -504.83363 115.48092 -504.82763 116.21192 C -504.78463 121.81891 -500.39174 133.01221 -488.92675 133.01221 z M -176.21189 77.438966 L -176.21189 -30.35742 C -176.21189 -30.35742 -161.90965 -32.008101 -144.30466 -29.808103 C -123.94868 -23.20811 -105.2446 -8.9068487 -105.2446 27.391115 C -105.2446 42.2411 -110.50601 52.991892 -117.08201 60.629884 C -126.423 71.477873 -140.23426 77.438966 -154.55125 77.438966 L -176.21189 77.438966 z " />
        </g>
        <g
           id="g31"
           transform="translate(548.4271,345.8672)" />
        <g
           id="g35"
           transform="translate(256.6136,203.3672)">
          <path fill="currentColor"
             d="m 0,0 c 3.585,-1.806 5.876,0.437 5.876,0.437 0,0 52.457,47.878 76.089,75.452 21.018,24.667 22.389,66.234 -13.708,81.766 -36.096,15.532 -65.795,-18.272 -65.795,-18.272 -25.755,28.326 -64.734,26.891 -82.763,7.721 -18.027,-19.169 -11.732,-52.072 1.717,-70.383 12.626,-17.19 68.119,-66.65 76.529,-75.015 0,0 0.614,-0.641 2.055,-1.706"
             id="path37" />
        </g>
        <g
           id="g39"
           transform="translate(945.6781,178.7002)" />
        <g
           id="g43"
           transform="translate(1145.8705,293.0957)" />
        <g
           id="g47"
           transform="translate(1248.8246,254.752)" />
        <g
           id="g51"
           transform="translate(1632.8949,150.3125)" />
      </g>
    </g>
  </g>
</svg>

<?xml version="1.0" encoding="UTF-8"?>
<!-- Created with Inkscape (http://www.inkscape.org/) -->
<svg width="211.67mm" height="211.67mm" version="1.1" viewBox="0 0 211.67 211.67" xmlns="http://www.w3.org/2000/svg">
 <defs>
  <clipPath id="clipPath25">
   <path d="m0 600h1654.8v-600h-1654.8z" fill="currentColor"/>
  </clipPath>
 </defs>
 <g transform="translate(-3.0786 -29.59)">
  <g transform="matrix(.35278 0 0 -.35278 3.0785 241.26)">
   <g clip-path="url(#clipPath25)">
    <g transform="translate(600 300)">
     <path d="m-300 300c-165.69 0-300-134.31-300-300 0-165.69 134.31-300 300-300 165.68 0 300 134.31 300 300 0 165.69-134.32 300-300 300zm-188.93-166.99h329.58c23.223 0 46.032-6.8325 65.073-20.125 18.412-12.856 36.378-33.646 42.697-67.02 14.674-77.514-43.568-135.76-126.12-131.18 0.438-21.268-3.8105-59.422-44.878-69.696-3.282-0.821-6.6604-1.186-10.044-1.207-72.13-0.448-222.53-0.88916-222.53-0.88916s-46.066-0.01555-49.176 45.962c-1.023 77.88-0.48339 223.69-0.48339 223.69s-0.02651 2.9267-0.02051 3.6577c0.043 5.607 4.4359 16.8 15.901 16.8zm312.71-55.573v-107.8s14.302-1.6507 31.907 0.54932c20.356 6.6 39.06 20.901 39.06 57.199 0 14.85-5.2614 25.601-11.837 33.239-9.341 10.848-23.152 16.809-37.469 16.809h-21.661z" fill="currentColor"/>
    </g>
    <g transform="translate(256.61 203.37)">
     <path d="m0 0c3.585-1.806 5.876 0.437 5.876 0.437s52.457 47.878 76.089 75.452c21.018 24.667 22.389 66.234-13.708 81.766-36.096 15.532-65.795-18.272-65.795-18.272-25.755 28.326-64.734 26.891-82.763 7.721-18.027-19.169-11.732-52.072 1.717-70.383 12.626-17.19 68.119-66.65 76.529-75.015 0 0 0.614-0.641 2.055-1.706" fill="currentColor"/>
    </g>
   </g>
  </g>
 </g>
</svg>
